X: 8
T: Cooley's
Z: ceolachan
S: https://thesession.org/tunes/1#setting23915
R: reel
M: 4/4
L: 1/8
K: Edor
|: D |EBBA B2- BA | ~B2 AB dBAG | FDAD BDAG | F/E/D FA dAFD |
EB-BA B2 BA | B/c/B AB defg | afef dBAF | DEFD E3 :|
|: f |eB ~B2 eBfB | eB ~B2 gedB | A/B/A FA DAFA | ~A2 FA defd |
eB B/c/B eBgf | eB ~B2 defg | afef dBAF | DE F/E/D E3 :|
